packages/kaspersky-hexa-ui-icons/src/iconsSVGs/48/Messages.svg

<svg width="48" height="48" viewBox="0 0 48 48" fill="none" xmlns="http://www.w3.org/2000/svg">
<path fill-rule="evenodd" clip-rule="evenodd" d="M3.98656 22L11.2466 18H35.9866C40.4048 18 43.9866 14.4183 43.9866 10C43.9866 5.58172 40.4048 2 35.9866 2H7.98656C4.37139 2.0064 1.20975 4.43651 0.273595 7.92837C-0.662561 11.4202 0.859431 15.106 3.98656 16.92V22ZM1.98656 10C1.98656 6.68629 4.67286 4 7.98656 4H35.9866C39.3003 4 41.9866 6.68629 41.9866 10C41.9866 13.3137 39.3003 16 35.9866 16H10.7266L5.98656 18.61V15.68L5.41656 15.41C3.32571 14.4189 1.99109 12.3139 1.98656 10ZM11.9866 10C11.9866 8.89543 12.882 8 13.9866 8C15.0911 8 15.9866 8.89543 15.9866 10C15.9866 11.1046 15.0911 12 13.9866 12C12.882 12 11.9866 11.1046 11.9866 10ZM19.9866 10C19.9866 8.89543 20.882 8 21.9866 8C23.0911 8 23.9866 8.89543 23.9866 10C23.9866 11.1046 23.0911 12 21.9866 12C20.882 12 19.9866 11.1046 19.9866 10ZM27.9866 10C27.9866 8.89543 28.882 8 29.9866 8C31.0911 8 31.9866 8.89543 31.9866 10C31.9866 11.1046 31.0911 12 29.9866 12C28.882 12 27.9866 11.1046 27.9866 10ZM39.9866 26H11.9866C7.56829 26 3.98656 29.5817 3.98656 34C3.98656 38.4183 7.56829 42 11.9866 42H36.7266L43.9866 46V40.92C47.1137 39.106 48.6357 35.4202 47.6995 31.9284C46.7634 28.4365 43.6017 26.0064 39.9866 26ZM42.5566 39.41L41.9866 39.68V42.61L37.2466 40H11.9866C8.67286 40 5.98656 37.3137 5.98656 34C5.98656 30.6863 8.67286 28 11.9866 28H39.9866C42.7831 28.0114 45.2009 29.9533 45.8154 32.6815C46.4299 35.4098 45.0782 38.2007 42.5566 39.41ZM35.9866 34C35.9866 35.1046 35.0911 36 33.9866 36C32.882 36 31.9866 35.1046 31.9866 34C31.9866 32.8954 32.882 32 33.9866 32C35.0911 32 35.9866 32.8954 35.9866 34ZM27.9866 34C27.9866 35.1046 27.0911 36 25.9866 36C24.882 36 23.9866 35.1046 23.9866 34C23.9866 32.8954 24.882 32 25.9866 32C27.0911 32 27.9866 32.8954 27.9866 34ZM19.9866 34C19.9866 35.1046 19.0911 36 17.9866 36C16.882 36 15.9866 35.1046 15.9866 34C15.9866 32.8954 16.882 32 17.9866 32C19.0911 32 19.9866 32.8954 19.9866 34Z"  fill="currentColor"/>
</svg>

<svg xmlns="http://www.w3.org/2000/svg" width="48" height="48" fill="none" viewBox="0 0 48 48"><path fill="currentColor" fill-rule="evenodd" d="m3.9866 22 7.26-4h24.74c4.4182 0 8-3.5817 8-8s-3.5818-8-8-8h-28c-3.6152.0064-6.7768 2.4365-7.713 5.9284s.5858 7.1776 3.713 8.9916zm-2-12c0-3.3137 2.6863-6 6-6h28c3.3137 0 6 2.6863 6 6s-2.6863 6-6 6h-25.26l-4.74 2.61v-2.93l-.57-.27a6 6 0 0 1-3.43-5.41m10 0c0-1.1046.8954-2 2-2s2 .8954 2 2-.8955 2-2 2-2-.8954-2-2m8 0c0-1.1046.8954-2 2-2s2 .8954 2 2-.8955 2-2 2-2-.8954-2-2m8 0c0-1.1046.8954-2 2-2s2 .8954 2 2-.8955 2-2 2-2-.8954-2-2m12 16h-28c-4.4183 0-8 3.5817-8 8s3.5817 8 8 8h24.74l7.26 4v-5.08c3.1271-1.814 4.6491-5.4998 3.7129-8.9916S43.6017 26.0064 39.9866 26m2.57 13.41-.57.27v2.93l-4.74-2.61h-25.26c-3.3137 0-6-2.6863-6-6s2.6863-6 6-6h28c2.7965.0114 5.2143 1.9533 5.8288 4.6815.6145 2.7283-.7372 5.5192-3.2588 6.7285m-6.57-5.41c0 1.1046-.8955 2-2 2s-2-.8954-2-2 .8954-2 2-2 2 .8954 2 2m-8 0c0 1.1046-.8955 2-2 2s-2-.8954-2-2 .8954-2 2-2 2 .8954 2 2m-8 0c0 1.1046-.8955 2-2 2s-2-.8954-2-2 .8954-2 2-2 2 .8954 2 2" clip-rule="evenodd"/></svg>
